img/manaSymbols/purplep.svg

﻿<?xml version="1.0" encoding="utf-8"?>
<svg width="600" height="600" viewBox="0 0 600 600" version="1.1" xmlns="http://www.w3.org/2000/svg" xml:space="preserve" style="fill-rule: evenodd; clip-rule: evenodd; stroke-linejoin: round; stroke-miterlimit: 2;" preserveAspectRatio="xMidYMid meet" zoomAndPan="magnify" contentScriptType="application/ecmascript" contentStyleType="text/css">
  <circle cx="300" cy="300" r="300" style="fill: rgb(171, 139, 215);" />
  <path d="M465.4 299.6c.3-32.1-9.8-64.4-29.8-89.6-9.6-10.6-17.6-22.7-27.8-32.8-22.5-22.4-56.2-23.8-83.4-37.9-1.6-14.1-6.7-28.3-3.6-42.6 1-4.7 2.4-9.6-.2-14.1-7.1-16.4-1-34.2-2.3-51.3-.9-8.9-.3-19.9-8.8-25.4-2 18.6-8.8 35.9-14.4 53.5-2.6 13.7-2.6 28.1-8.5 41 3.8 13.1-3.7 24.2-11.7 33.9-17.8 9.1-39 11.3-54.5 24.7-11 9.4-23 17.6-35.3 25.2-9.3 11.6-19.5 22.8-23.7 37.4-16.6 20-18.5 46.9-27.9 70.3-.2 34.8 6.9 72.3 29.1 100.2 15.9 13.1 27 30.8 42.9 43.9 15.2 9.1 31.5 16.6 47.2 24.8 10.3 2.4 20.9 3.6 31.1 6.4 8.3 42.7 13.9 86.4 30.6 126.8 5.5-16.6 4.8-34.4 9.6-51.2 6.7-24.8-7.1-50.6.7-75 11.6-10.4 31-3.6 43.9-12.6 24.6-15.1 50.5-29.9 68.3-53 6.6-13.3 20.6-23.3 20.6-39.2.1-21.5 12.7-41.7 7.9-63.4M283.2 431.2c-17.8-4.3-34.4-12.8-49.3-23.2-16.1-10.7-22-30.7-37.9-41.6-14.8-17.7-11.6-41.9-17.7-62.9 2.4-14.6 5.3-29.1 6.8-43.9 7.2-11.7 18.4-21.1 21.5-35.2 10.6-15.2 26.7-25.7 39.7-38.9 9.4-10.9 24.4-6.3 36.8-6.7-1.2 12-2.2 24.4.8 36.3 1.5 7.3 4.7 14.4 3.6 22.1-2.5 16.2 3.6 32.4-.7 48.4-8.7 33.5.8 67.3 1.6 101-1.2 14.9-1.9 30-5.3 44.7M418 367.9c-11.8 8.4-21.8 18.7-32.1 28.7-17.9 12.4-35.5 25.4-56.8 31.6 1.9-15.2 3.8-30.8-1-45.6-11.9-33.6 2.7-68.7 5.1-102.6-2.2-20.2-.1-41.7-9.3-60.3-1.2-14 4.8-27.4 8.9-40.6 14.1 5.6 27.3 13.2 39 22.9 14.1 10.6 35.8 17.4 38.9 37.2 1.6 13 15.8 20.8 15.4 34.1-.9 31.5 3.5 64.5-8 94.6" style="fill: rgb(35, 31, 32); fill-rule: nonzero;" />
</svg>

<?xml version="1.0" encoding="UTF-8" standalone="no"?>
<!DOCTYPE svg PUBLIC "-//W3C//DTD SVG 1.1//EN" "http://www.w3.org/Graphics/SVG/1.1/DTD/svg11.dtd">
<svg width="600" height="600" viewBox="0 0 600 600" version="1.1" xmlns="http://www.w3.org/2000/svg" xmlns:xlink="http://www.w3.org/1999/xlink" xml:space="preserve" xmlns:serif="http://www.serif.com/" style="fill-rule:evenodd;clip-rule:evenodd;stroke-linejoin:round;stroke-miterlimit:2;">
    <circle cx="300" cy="300" r="300" style="fill:rgb(171,139,215);"/>
    <path d="M465.4,299.6C465.7,267.5 455.6,235.2 435.6,210C426,199.4 418,187.3 407.8,177.2C385.3,154.8 351.6,153.4 324.4,139.3C322.8,125.2 317.7,111 320.8,96.7C321.8,92 323.2,87.1 320.6,82.6C313.5,66.2 319.6,48.4 318.3,31.3C317.4,22.4 318,11.4 309.5,5.9C307.5,24.5 300.7,41.8 295.1,59.4C292.5,73.1 292.5,87.5 286.6,100.4C290.4,113.5 282.9,124.6 274.9,134.3C257.1,143.4 235.9,145.6 220.4,159C209.4,168.4 197.4,176.6 185.1,184.2C175.8,195.8 165.6,207 161.4,221.6C144.8,241.6 142.9,268.5 133.5,291.9C133.3,326.7 140.4,364.2 162.6,392.1C178.5,405.2 189.6,422.9 205.5,436C220.7,445.1 237,452.6 252.7,460.8C263,463.2 273.6,464.4 283.8,467.2C292.1,509.9 297.7,553.6 314.4,594C319.9,577.4 319.2,559.6 324,542.8C330.7,518 316.9,492.2 324.7,467.8C336.3,457.4 355.7,464.2 368.6,455.2C393.2,440.1 419.1,425.3 436.9,402.2C443.5,388.9 457.5,378.9 457.5,363C457.6,341.5 470.2,321.3 465.4,299.6M283.2,431.2C265.4,426.9 248.8,418.4 233.9,408C217.8,397.3 211.9,377.3 196,366.4C181.2,348.7 184.4,324.5 178.3,303.5C180.7,288.9 183.6,274.4 185.1,259.6C192.3,247.9 203.5,238.5 206.6,224.4C217.2,209.2 233.3,198.7 246.3,185.5C255.7,174.6 270.7,179.2 283.1,178.8C281.9,190.8 280.9,203.2 283.9,215.1C285.4,222.4 288.6,229.5 287.5,237.2C285,253.4 291.1,269.6 286.8,285.6C278.1,319.1 287.6,352.9 288.4,386.6C287.2,401.5 286.5,416.6 283.1,431.3M418,367.9C406.2,376.3 396.2,386.6 385.9,396.6C368,409 350.4,422 329.1,428.2C331,413 332.9,397.4 328.1,382.6C316.2,349 330.8,313.9 333.2,280C331,259.8 333.1,238.3 323.9,219.7C322.7,205.7 328.7,192.3 332.8,179.1C346.9,184.7 360.1,192.3 371.8,202C385.9,212.6 407.6,219.4 410.7,239.2C412.3,252.2 426.5,260 426.1,273.3C425.2,304.8 429.6,337.8 418.1,367.9" style="fill:rgb(35,31,32);fill-rule:nonzero;"/>
</svg>
